X: 8
T: HORNPIPE: Bantry Bay
T: Little Stack of Wheat
C: C: Trad.; S: Various
C: Set Leaders: Sophie, Anton
Z: Anton Zille ed.; Edgar Bolton at The Session
N: https://thesession.org/members/26966/sets/92011
R: Hornpipe
M: 4/4
L: 1/8
Q: 1/2=82
K: Gmaj
GA|:BGAG EGDE|G2GF GBAG|(3EFG AB cBAG|(3ABA (3GAB A2 AB|
cece BdBd|ABAG EGDG|BGAG EGDE|1 G2 GF G2GA:|2 G2 GF G2 (3ABc||
|:d2 eB dBGA|Beed e2 ef|gfed BGBd|(3efg (3fga g2 ef|
g2 gf (3efg ed|BGAG EGDG|BGAG EGDE|1 G2 GF G2 (3ABc:|2 G2 GF G4||

